src/images_karasa_jaga_svg/cmd/32/insertpagebreak.svg

<svg enable-background="new 0 0 128 128" height="32" viewBox="0 0 32 32" width="32" xmlns="http://www.w3.org/2000/svg" xmlns:xlink="http://www.w3.org/1999/xlink"><linearGradient id="a"><stop offset="0" stop-color="#06f"/><stop offset="1" stop-color="#80b3ff"/></linearGradient><linearGradient id="b" gradientUnits="userSpaceOnUse" x1="13.436937" x2="13.436937" xlink:href="#a" y1="77.973312" y2="46.034309"/><linearGradient id="c" gradientUnits="userSpaceOnUse" x1="40" x2="40" xlink:href="#a" y1="64" y2="48"/><linearGradient id="d" gradientUnits="userSpaceOnUse" x1="64" x2="64" xlink:href="#a" y1="64" y2="48"/><linearGradient id="e" gradientUnits="userSpaceOnUse" x1="88" x2="88" xlink:href="#a" y1="64" y2="48"/><linearGradient id="f" gradientUnits="userSpaceOnUse" x1="112" x2="112" xlink:href="#a" y1="64" y2="48"/><radialGradient id="g" cx="102" cy="112.3047" gradientUnits="userSpaceOnUse" r="139.5585"><stop offset="0" stop-color="#00537d"/><stop offset=".0151" stop-color="#186389"/><stop offset=".0558" stop-color="#558ca8"/><stop offset=".0964" stop-color="#89afc3"/><stop offset=".1357" stop-color="#b3ccd8"/><stop offset=".1737" stop-color="#d4e2e9"/><stop offset=".2099" stop-color="#ecf2f5"/><stop offset=".2435" stop-color="#fafcfd"/><stop offset=".2722" stop-color="#fff"/></radialGradient><radialGradient id="h" cx="102" cy="112.3047" gradientTransform="matrix(.9787234 0 0 .9818182 1.361705 1.163636)" gradientUnits="userSpaceOnUse" r="139.55859"><stop offset="0" stop-color="#535557"/><stop offset=".11366145" stop-color="#898a8c"/><stop offset=".20296688" stop-color="#ececec"/><stop offset=".2363" stop-color="#fafafa"/><stop offset=".2722" stop-color="#fff"/><stop offset=".5313" stop-color="#fafafa"/><stop offset=".8449" stop-color="#ebecec"/><stop offset="1" stop-color="#e1e2e3"/></radialGradient><linearGradient id="i" gradientUnits="userSpaceOnUse" x1="88.591797" x2="71.262016" y1="96.592697" y2="79.262917"><stop offset="0" stop-color="#fff"/><stop offset="1" stop-color="#555753"/></linearGradient><linearGradient id="j" gradientUnits="userSpaceOnUse" x1="85.219681" x2="61.336319" y1="93.219681" y2="69.336319"><stop offset="0"/><stop offset="1" stop-color="#393b38"/></linearGradient><linearGradient id="k" gradientUnits="userSpaceOnUse" x1="96" x2="88.000198" y1="104" y2="96.000198"><stop offset="0" stop-color="#888a85"/><stop offset=".0072" stop-color="#8c8e89"/><stop offset=".0673" stop-color="#abaca9"/><stop offset=".1347" stop-color="#c5c6c4"/><stop offset=".2115" stop-color="#dbdbda"/><stop offset=".3012" stop-color="#ebebeb"/><stop offset=".4122" stop-color="#f7f7f6"/><stop offset=".5679" stop-color="#fdfdfd"/><stop offset="1" stop-color="#fff"/></linearGradient><filter id="l"><feGaussianBlur stdDeviation="1.0394514"/></filter><filter id="m"><feGaussianBlur stdDeviation=".50063244"/></filter><filter id="n"><feGaussianBlur stdDeviation=".40750996"/></filter><filter id="o"><feGaussianBlur stdDeviation=".4901192"/></filter><filter id="p"><feGaussianBlur stdDeviation=".90565481"/></filter><clipPath id="q"><path d="m12.000002 4h103.999998v56h-103.999998z"/></clipPath><clipPath id="r"><path d="m12 76.000008h104v48.000002h-104z"/></clipPath><g transform="matrix(.25 0 0 .25 .045138 -.000001)"><g clip-path="url(#r)" transform="translate(0 -76.000004)"><path d="m23 9 .04082 112h61.131184c.53 0 1.039-.211 1.414-.586l32.827996-32.828c.375-.375.586-.884.586-1.414v-77.172z" filter="url(#l)" opacity=".306849" transform="matrix(1.0416667 0 0 1.0357143 -9.958333 -3.321534)"/><path d="m24.919999 10.931136v108.137934l58.676001-.0001c.53 0 1.039-.211 1.414-.586l31.484-31.765936c.375-.375.586-.884.586-1.414v-74.371898z" filter="url(#m)" opacity=".89589" transform="matrix(1.0416667 0 0 1.0357143 -9.958333 -3.321534)"/><path d="m23 9.9655172.040816 111.0344828h61.131184c.53 0 1.039-.211 1.414-.586l32.828-32.828c.375-.375.586-.884.586-1.414v-76.2064828z" filter="url(#l)" opacity=".306849" transform="matrix(1.0416667 0 0 1.0357143 -9.958333 -3.321534)"/><path d="m16.000002 8v112h61.172c.53 0 1.039-.211 1.414-.586l32.827998-32.828c.375-.375.586-.884.586-1.414v-77.172z" fill="url(#g)"/><path d="m19.678725 10.7c-.539276 0-.978723.440836-.978723.981818l-.7 105.336362c0 .54197.439447.98182.978723.98182h57.913022c.257404 0 .509915-.10407.691957-.28767l32.129526-32.23113c.18303-.1836.28677-.435927.28677-.694145v-73.805237c0-.540982-.43847-.981818-.97872-.981818z" fill="url(#h)"/><g transform="translate(.000002)"><path d="m111.414 86.586c.25-.25-26.379-1.586-31.414-1.586-1.654 0-3 1.346-3 3 0 5.035 1.336 31.664 1.586 31.414z" fill="url(#i)" filter="url(#n)" opacity=".1"/><path d="m111.414 86.586c.375-.375-21.97-.586-31.414-.586-1.103 0-2 .897-2 2 0 9.444.211 31.789.586 31.414z" filter="url(#p)" opacity=".2"/><path d="m111.414 86.586c.239-.239-21.607.414-31.414.414-.553 0-1 .447-1 1 0 9.807-.653 31.653-.414 31.414z" fill="url(#j)" filter="url(#o)" opacity=".1"/><path d="m78.586 119.414s11.914-9.914 17.414-15.414 15.414-17.414 15.414-17.414-21.164 1.414-31.414 1.414c0 10.25-1.414 31.414-1.414 31.414z" fill="url(#k)"/></g></g><g clip-path="url(#q)" transform="translate(-.000002 68)"><path d="m23 9 .04082 112h61.131184c.53 0 1.039-.211 1.414-.586l32.827996-32.828c.375-.375.586-.884.586-1.414v-77.172z" filter="url(#l)" opacity=".306849" transform="matrix(1.0416667 0 0 1.0357143 -9.958333 -3.321534)"/><path d="m24.919999 10.931136v108.137934l58.676001-.0001c.53 0 1.039-.211 1.414-.586l31.484-31.765936c.375-.375.586-.884.586-1.414v-74.371898z" filter="url(#m)" opacity=".89589" transform="matrix(1.0416667 0 0 1.0357143 -9.958333 -3.321534)"/><path d="m23 9.9655172.040816 111.0344828h61.131184c.53 0 1.039-.211 1.414-.586l32.828-32.828c.375-.375.586-.884.586-1.414v-76.2064828z" filter="url(#l)" opacity=".306849" transform="matrix(1.0416667 0 0 1.0357143 -9.958333 -3.321534)"/><path d="m16.000002 8v112h61.172c.53 0 1.039-.211 1.414-.586l32.827998-32.828c.375-.375.586-.884.586-1.414v-77.172z" fill="url(#g)"/><path d="m19.678725 10.7c-.539276 0-.978723.440836-.978723.981818l-.7 105.336362c0 .54197.439447.98182.978723.98182h57.913022c.257404 0 .509915-.10407.691957-.28767l32.129526-32.23113c.18303-.1836.28677-.435927.28677-.694145v-73.805237c0-.540982-.43847-.981818-.97872-.981818z" fill="url(#h)"/><g transform="translate(.000002)"><path d="m111.414 86.586c.25-.25-26.379-1.586-31.414-1.586-1.654 0-3 1.346-3 3 0 5.035 1.336 31.664 1.586 31.414z" fill="url(#i)" filter="url(#n)" opacity=".1"/><path d="m111.414 86.586c.375-.375-21.97-.586-31.414-.586-1.103 0-2 .897-2 2 0 9.444.211 31.789.586 31.414z" filter="url(#p)" opacity=".2"/><path d="m111.414 86.586c.239-.239-21.607.414-31.414.414-.553 0-1 .447-1 1 0 9.807-.653 31.653-.414 31.414z" fill="url(#j)" filter="url(#o)" opacity=".1"/><path d="m78.586 119.414s11.914-9.914 17.414-15.414 15.414-17.414 15.414-17.414-21.164 1.414-31.414 1.414c0 10.25-1.414 31.414-1.414 31.414z" fill="url(#k)"/></g></g><g fill="#1d60bf"><path d="m.359375 47.302734a.40976813.40976813 0 0 0 -.41992187.410157v16.287109 16.287109a.40976813.40976813 0 0 0 .61523437.355469l14.1054685-8.142578 14.105469-8.144531a.40976813.40976813 0 0 0 0-.710938l-14.105469-8.144531-14.1054685-8.142578a.40976813.40976813 0 0 0 -.1953125-.054688z" fill="url(#b)" transform="matrix(.89079669 0 0 1.0019098 .030421 -2.122227)"/><path d="m32 56h16v8h-16z" fill="url(#c)"/><path d="m56 56h16v8h-16z" fill="url(#d)"/><path d="m80 56h16v8h-16z" fill="url(#e)"/><path d="m104 56h16v8h-16z" fill="url(#f)"/><path d="m4.4570312 54.826172v9.173828 9.173828l7.9433598-4.585937 7.945312-4.587891-7.945312-4.587891z" fill="#bfd9ff" transform="matrix(.89079669 0 0 1.0019098 .030421 -2.122227)"/></g></g></svg>

<?xml version="1.0" encoding="UTF-8" standalone="no"?>
<svg
   xmlns:dc="http://purl.org/dc/elements/1.1/"
   xmlns:cc="http://creativecommons.org/ns#"
   xmlns:rdf="http://www.w3.org/1999/02/22-rdf-syntax-ns#"
   xmlns:svg="http://www.w3.org/2000/svg"
   xmlns="http://www.w3.org/2000/svg"
   xmlns:xlink="http://www.w3.org/1999/xlink"
   xmlns:sodipodi="http://sodipodi.sourceforge.net/DTD/sodipodi-0.dtd"
   xmlns:inkscape="http://www.inkscape.org/namespaces/inkscape"
   enable-background="new 0 0 128 128"
   height="128"
   viewBox="0 0 128 128"
   width="128"
   version="1.1"
   id="svg144"
   sodipodi:docname="insertpagebreak.svg"
   inkscape:version="0.92.3 (unknown)"
   inkscape:export-filename="/home/rizmut/Dokumen/Rizmut/Github/libreoffice-style-karasa-jaga/build/images_karasa_jaga/cmd/32/insertpagebreak.png"
   inkscape:export-xdpi="24"
   inkscape:export-ydpi="24">
  <metadata
     id="metadata150">
    <rdf:RDF>
      <cc:Work
         rdf:about="">
        <dc:format>image/svg+xml</dc:format>
        <dc:type
           rdf:resource="http://purl.org/dc/dcmitype/StillImage" />
        <dc:title></dc:title>
      </cc:Work>
    </rdf:RDF>
  </metadata>
  <defs
     id="defs148">
    <linearGradient
       inkscape:collect="always"
       id="linearGradient4372">
      <stop
         style="stop-color:#0066ff;stop-opacity:1;"
         offset="0"
         id="stop4374" />
      <stop
         style="stop-color:#80b3ff;stop-opacity:1"
         offset="1"
         id="stop4376" />
    </linearGradient>
    <linearGradient
       inkscape:collect="always"
       xlink:href="#linearGradient4372"
       id="linearGradient991"
       x1="13.436937"
       y1="77.973312"
       x2="13.436937"
       y2="46.034309"
       gradientUnits="userSpaceOnUse" />
    <linearGradient
       inkscape:collect="always"
       xlink:href="#linearGradient4372"
       id="linearGradient999"
       x1="40"
       y1="64"
       x2="40"
       y2="48"
       gradientUnits="userSpaceOnUse" />
    <linearGradient
       inkscape:collect="always"
       xlink:href="#linearGradient4372"
       id="linearGradient1003"
       gradientUnits="userSpaceOnUse"
       x1="40"
       y1="64"
       x2="40"
       y2="48"
       gradientTransform="translate(24)" />
    <linearGradient
       inkscape:collect="always"
       xlink:href="#linearGradient4372"
       id="linearGradient1007"
       gradientUnits="userSpaceOnUse"
       gradientTransform="translate(48)"
       x1="40"
       y1="64"
       x2="40"
       y2="48" />
    <linearGradient
       inkscape:collect="always"
       xlink:href="#linearGradient4372"
       id="linearGradient1011"
       gradientUnits="userSpaceOnUse"
       gradientTransform="translate(72)"
       x1="40"
       y1="64"
       x2="40"
       y2="48" />
  </defs>
  <sodipodi:namedview
     pagecolor="#ffffff"
     bordercolor="#666666"
     borderopacity="1"
     objecttolerance="10"
     gridtolerance="10"
     guidetolerance="10"
     inkscape:pageopacity="0"
     inkscape:pageshadow="2"
     inkscape:window-width="1366"
     inkscape:window-height="706"
     id="namedview146"
     showgrid="true"
     inkscape:zoom="1.84375"
     inkscape:cx="63.924863"
     inkscape:cy="-20.998632"
     inkscape:window-x="0"
     inkscape:window-y="0"
     inkscape:window-maximized="1"
     inkscape:current-layer="svg144">
    <inkscape:grid
       type="xygrid"
       id="grid983"
       spacingx="4"
       spacingy="4"
       empspacing="1" />
  </sodipodi:namedview>
  <linearGradient
     id="a"
     gradientUnits="userSpaceOnUse"
     x1="88.591797"
     x2="71.262016"
     y1="96.592697"
     y2="79.262917">
    <stop
       offset="0"
       stop-color="#fff"
       id="stop2" />
    <stop
       offset="1"
       stop-color="#555753"
       id="stop4" />
  </linearGradient>
  <linearGradient
     id="b"
     gradientUnits="userSpaceOnUse"
     x1="85.219681"
     x2="61.336319"
     y1="93.219681"
     y2="69.336319">
    <stop
       offset="0"
       id="stop7" />
    <stop
       offset="1"
       stop-color="#393b38"
       id="stop9" />
  </linearGradient>
  <linearGradient
     id="c"
     gradientUnits="userSpaceOnUse"
     x1="96"
     x2="88.0002"
     y1="104"
     y2="96.0002">
    <stop
       offset="0"
       stop-color="#888a85"
       id="stop12" />
    <stop
       offset=".0072"
       stop-color="#8c8e89"
       id="stop14" />
    <stop
       offset=".0673"
       stop-color="#abaca9"
       id="stop16" />
    <stop
       offset=".1347"
       stop-color="#c5c6c4"
       id="stop18" />
    <stop
       offset=".2115"
       stop-color="#dbdbda"
       id="stop20" />
    <stop
       offset=".3012"
       stop-color="#ebebeb"
       id="stop22" />
    <stop
       offset=".4122"
       stop-color="#f7f7f6"
       id="stop24" />
    <stop
       offset=".5679"
       stop-color="#fdfdfd"
       id="stop26" />
    <stop
       offset="1"
       stop-color="#fff"
       id="stop28" />
  </linearGradient>
  <radialGradient
     id="d"
     cx="102"
     cy="112.3047"
     gradientTransform="matrix(.9787234 0 0 .9818182 1.361705 1.163636)"
     gradientUnits="userSpaceOnUse"
     r="139.55859">
    <stop
       offset="0"
       stop-color="#535557"
       id="stop31" />
    <stop
       offset=".11366145"
       stop-color="#898a8c"
       id="stop33" />
    <stop
       offset=".20296688"
       stop-color="#ececec"
       id="stop35" />
    <stop
       offset=".2363"
       stop-color="#fafafa"
       id="stop37" />
    <stop
       offset=".2722"
       stop-color="#fff"
       id="stop39" />
    <stop
       offset=".5313"
       stop-color="#fafafa"
       id="stop41" />
    <stop
       offset=".8449"
       stop-color="#ebecec"
       id="stop43" />
    <stop
       offset="1"
       stop-color="#e1e2e3"
       id="stop45" />
  </radialGradient>
  <radialGradient
     id="e"
     cx="102.000002"
     cy="112.3047"
     gradientUnits="userSpaceOnUse"
     r="139.5585">
    <stop
       offset="0"
       stop-color="#00537d"
       id="stop48" />
    <stop
       offset=".0151"
       stop-color="#186389"
       id="stop50" />
    <stop
       offset=".0558"
       stop-color="#558ca8"
       id="stop52" />
    <stop
       offset=".0964"
       stop-color="#89afc3"
       id="stop54" />
    <stop
       offset=".1357"
       stop-color="#b3ccd8"
       id="stop56" />
    <stop
       offset=".1737"
       stop-color="#d4e2e9"
       id="stop58" />
    <stop
       offset=".2099"
       stop-color="#ecf2f5"
       id="stop60" />
    <stop
       offset=".2435"
       stop-color="#fafcfd"
       id="stop62" />
    <stop
       offset=".2722"
       stop-color="#fff"
       id="stop64" />
  </radialGradient>
  <filter
     id="f">
    <feGaussianBlur
       stdDeviation="1.0394514"
       id="feGaussianBlur67" />
  </filter>
  <filter
     id="g">
    <feGaussianBlur
       stdDeviation=".50063244"
       id="feGaussianBlur70" />
  </filter>
  <filter
     id="h">
    <feGaussianBlur
       stdDeviation=".40750996"
       id="feGaussianBlur73" />
  </filter>
  <filter
     id="i">
    <feGaussianBlur
       stdDeviation=".4901192"
       id="feGaussianBlur76" />
  </filter>
  <filter
     id="j">
    <feGaussianBlur
       stdDeviation=".90565481"
       id="feGaussianBlur79" />
  </filter>
  <clipPath
     id="k">
    <path
       d="m12.000002 4h104v56h-104z"
       id="path82" />
  </clipPath>
  <clipPath
     id="l">
    <path
       d="m12 76.000008h104v48h-104z"
       id="path85" />
  </clipPath>
  <g
     clip-path="url(#l)"
     transform="translate(0 -76.000004)"
     id="g108">
    <path
       d="m23 9 .04082 112h61.131184c.53 0 1.039-.211 1.414-.586l32.827996-32.828c.375-.375.586-.884.586-1.414v-77.172z"
       filter="url(#f)"
       opacity=".306849"
       transform="matrix(1.0416667 0 0 1.0357143 -9.958333 -3.321534)"
       id="path88" />
    <path
       d="m24.919999 10.931136v108.137934l58.676001-.0001c.53 0 1.039-.211 1.414-.586l31.484-31.765936c.375-.375.586-.884.586-1.414v-74.371898z"
       filter="url(#g)"
       opacity=".89589"
       transform="matrix(1.0416667 0 0 1.0357143 -9.958333 -3.321534)"
       id="path90" />
    <path
       d="m23 9.9655172.040816 111.0344828h61.131184c.53 0 1.039-.211 1.414-.586l32.828-32.828c.375-.375.586-.884.586-1.414v-76.2064828z"
       filter="url(#f)"
       opacity=".306849"
       transform="matrix(1.0416667 0 0 1.0357143 -9.958333 -3.321534)"
       id="path92" />
    <path
       d="m16.000002 8v112h61.172c.53 0 1.039-.211 1.414-.586l32.827998-32.828c.375-.375.586-.884.586-1.414v-77.172z"
       fill="url(#e)"
       id="path94" />
    <path
       d="m19.678725 10.7c-.539276 0-.978723.440836-.978723.981818l-.7 105.336362c0 .54197.439447.98182.978723.98182h57.913022c.257404 0 .509915-.10407.691957-.28767l32.129526-32.23113c.18303-.1836.28677-.435927.28677-.694145v-73.805237c0-.540982-.43847-.981818-.97872-.981818z"
       fill="url(#d)"
       id="path96" />
    <g
       transform="translate(.000002)"
       id="g106">
      <path
         d="m111.414 86.586c.25-.25-26.379-1.586-31.414-1.586-1.654 0-3 1.346-3 3 0 5.035 1.336 31.664 1.586 31.414z"
         fill="url(#a)"
         filter="url(#h)"
         opacity=".1"
         id="path98" />
      <path
         d="m111.414 86.586c.375-.375-21.97-.586-31.414-.586-1.103 0-2 .897-2 2 0 9.444.211 31.789.586 31.414z"
         filter="url(#j)"
         opacity=".2"
         id="path100" />
      <path
         d="m111.414 86.586c.239-.239-21.607.414-31.414.414-.553 0-1 .447-1 1 0 9.807-.653 31.653-.414 31.414z"
         fill="url(#b)"
         filter="url(#i)"
         opacity=".1"
         id="path102" />
      <path
         d="m78.586 119.414s11.914-9.914 17.414-15.414 15.414-17.414 15.414-17.414-21.164 1.414-31.414 1.414c0 10.25-1.414 31.414-1.414 31.414z"
         fill="url(#c)"
         id="path104" />
    </g>
  </g>
  <g
     clip-path="url(#k)"
     transform="translate(-.000002 68)"
     id="g130">
    <path
       d="m23 9 .04082 112h61.131184c.53 0 1.039-.211 1.414-.586l32.827996-32.828c.375-.375.586-.884.586-1.414v-77.172z"
       filter="url(#f)"
       opacity=".306849"
       transform="matrix(1.0416667 0 0 1.0357143 -9.958333 -3.321534)"
       id="path110" />
    <path
       d="m24.919999 10.931136v108.137934l58.676001-.0001c.53 0 1.039-.211 1.414-.586l31.484-31.765936c.375-.375.586-.884.586-1.414v-74.371898z"
       filter="url(#g)"
       opacity=".89589"
       transform="matrix(1.0416667 0 0 1.0357143 -9.958333 -3.321534)"
       id="path112" />
    <path
       d="m23 9.9655172.040816 111.0344828h61.131184c.53 0 1.039-.211 1.414-.586l32.828-32.828c.375-.375.586-.884.586-1.414v-76.2064828z"
       filter="url(#f)"
       opacity=".306849"
       transform="matrix(1.0416667 0 0 1.0357143 -9.958333 -3.321534)"
       id="path114" />
    <path
       d="m16.000002 8v112h61.172c.53 0 1.039-.211 1.414-.586l32.827998-32.828c.375-.375.586-.884.586-1.414v-77.172z"
       fill="url(#e)"
       id="path116" />
    <path
       d="m19.678725 10.7c-.539276 0-.978723.440836-.978723.981818l-.7 105.336362c0 .54197.439447.98182.978723.98182h57.913022c.257404 0 .509915-.10407.691957-.28767l32.129526-32.23113c.18303-.1836.28677-.435927.28677-.694145v-73.805237c0-.540982-.43847-.981818-.97872-.981818z"
       fill="url(#d)"
       id="path118" />
    <g
       transform="translate(.000002)"
       id="g128">
      <path
         d="m111.414 86.586c.25-.25-26.379-1.586-31.414-1.586-1.654 0-3 1.346-3 3 0 5.035 1.336 31.664 1.586 31.414z"
         fill="url(#a)"
         filter="url(#h)"
         opacity=".1"
         id="path120" />
      <path
         d="m111.414 86.586c.375-.375-21.97-.586-31.414-.586-1.103 0-2 .897-2 2 0 9.444.211 31.789.586 31.414z"
         filter="url(#j)"
         opacity=".2"
         id="path122" />
      <path
         d="m111.414 86.586c.239-.239-21.607.414-31.414.414-.553 0-1 .447-1 1 0 9.807-.653 31.653-.414 31.414z"
         fill="url(#b)"
         filter="url(#i)"
         opacity=".1"
         id="path124" />
      <path
         d="m78.586 119.414s11.914-9.914 17.414-15.414 15.414-17.414 15.414-17.414-21.164 1.414-31.414 1.414c0 10.25-1.414 31.414-1.414 31.414z"
         fill="url(#c)"
         id="path126" />
    </g>
  </g>
  <g
     fill="#1d60bf"
     id="g142">
    <path
       transform="matrix(0.89079669,0,0,1.0019098,0.030421,-2.122227)"
       style="fill:url(#linearGradient991);fill-opacity:1;stroke:none;stroke-width:0.69967699"
       d="m 0.359375,47.302734 a 0.40976813,0.40976813 0 0 0 -0.41992187,0.410157 V 64 80.287109 A 0.40976813,0.40976813 0 0 0 0.5546875,80.642578 L 14.660156,72.5 28.765625,64.355469 a 0.40976813,0.40976813 0 0 0 0,-0.710938 L 14.660156,55.5 0.5546875,47.357422 A 0.40976813,0.40976813 0 0 0 0.359375,47.302734 Z"
       id="path132" />
    <path
       d="m32 56h16v8h-16z"
       id="path134"
       style="fill-opacity:1;fill:url(#linearGradient999)" />
    <path
       style="fill:url(#linearGradient1003);fill-opacity:1"
       id="path1001"
       d="m 56,56 h 16 v 8 H 56 Z"
       inkscape:connector-curvature="0" />
    <path
       inkscape:connector-curvature="0"
       d="m 80,56 h 16 v 8 H 80 Z"
       id="path1005"
       style="fill:url(#linearGradient1007);fill-opacity:1" />
    <path
       style="fill:url(#linearGradient1011);fill-opacity:1"
       id="path1009"
       d="m 104,56 h 16 v 8 h -16 z"
       inkscape:connector-curvature="0" />
    <path
       transform="matrix(0.89079669,0,0,1.0019098,0.030421,-2.122227)"
       style="fill:#bfd9ff;fill-opacity:1;stroke:none;stroke-width:0.69967699"
       d="M 4.4570312,54.826172 V 64 73.173828 L 12.400391,68.587891 20.345703,64 12.400391,59.412109 Z"
       id="path1013" />
  </g>
</svg>
